icons/baby_0203_alt.svg

<svg width="48" height="48" viewBox="0 0 48 48" fill="none" xmlns="http://www.w3.org/2000/svg">
<path fill-rule="evenodd" clip-rule="evenodd" d="M30.0001 12.0001C30.0001 15.3138 27.3139 18 24.0001 18C20.6864 18 18.0001 15.3138 18.0001 12.0001C18.0001 8.68635 20.6864 6 24.0001 6C27.3139 6 30.0001 8.68635 30.0001 12.0001ZM24.0001 16C26.2093 16 28.0001 14.2092 28.0001 12.0001C28.0001 9.7909 26.2093 8 24.0001 8C21.791 8 20.0001 9.79088 20.0001 12.0001C20.0001 14.2092 21.7909 16 24.0001 16Z" fill="black"/>
<path fill-rule="evenodd" clip-rule="evenodd" d="M32.4318 16.098C32.7791 16.2642 33.0001 16.615 33.0001 17V34.0414C33.0001 36.2299 32.3136 38.4679 30.8135 40.1734C29.295 41.8998 27.0122 43 24.0001 43C17.7911 43 15.0001 37.8335 15.0001 34.0414V17.5716C15 17.5614 15 17.5511 15.0001 17.5407V17.0006L15.1693 17.0005C15.1535 17.0005 15.1393 17.0003 15.1262 17.0003C15.0001 17.0004 15.0001 17.0006 15.0001 17.0006C15.0001 16.6213 15.2147 16.274 15.5542 16.1049C15.8937 15.9358 16.2997 15.9733 16.6025 16.2018C19.8108 18.6227 22.0813 19.6601 24.1741 19.6549C26.2562 19.6497 28.4062 18.6109 31.3728 16.2212C31.6726 15.9797 32.0845 15.9318 32.4318 16.098ZM17.0001 19.4965L17.0001 34.0414C17.0001 37.0709 19.2091 41 24.0001 41C26.488 41 28.2052 40.1105 29.3117 38.8525C30.1694 37.8773 30.7007 36.6334 30.9048 35.3037C30.7775 35.2096 30.6708 35.0839 30.5978 34.9312C29.0947 31.7855 26.3057 28.2908 23.3522 25.2319C21.1063 22.9059 18.8128 20.8805 17.0001 19.4965ZM31.0001 31.5496C29.3287 28.8931 27.0741 26.2073 24.7909 23.8427C23.9889 23.0121 23.1776 22.2151 22.3794 21.4672C22.9807 21.5928 23.5785 21.6564 24.179 21.6549C26.4613 21.6492 28.6194 20.7051 31.0001 19.0159V31.5496Z" fill="black"/>
</svg>

<svg
  xmlns="http://www.w3.org/2000/svg"
  width="24"
  height="24"
  viewBox="0 0 24 24"
  fill="none"
  stroke="currentColor"
  stroke-width="2"
  stroke-linecap="round"
  stroke-linejoin="round"
>
  <path
    fill-rule="evenodd"
    d="M30 12a6 6 0 1 1-12 0 6 6 0 0 1 12 0m-6 4a4 4 0 1 0 0-8 4 4 0 0 0 0 8"
    clip-rule="evenodd"
  />
  <path
    fill-rule="evenodd"
    d="M32.432 16.098A1 1 0 0 1 33 17v17.041c0 2.189-.686 4.427-2.186 6.132C29.295 41.9 27.012 43 24 43c-6.209 0-9-5.166-9-8.959v-17.04h.17H15a1 1 0 0 1 1.602-.8c3.209 2.422 5.48 3.46 7.572 3.454 2.082-.005 4.232-1.044 7.199-3.434a1 1 0 0 1 1.059-.123M17 19.497V34.04C17 37.071 19.21 41 24 41c2.488 0 4.205-.89 5.312-2.148.857-.975 1.389-2.219 1.593-3.548a1 1 0 0 1-.307-.373c-1.503-3.145-4.292-6.64-7.246-9.7-2.246-2.325-4.54-4.35-6.352-5.735M31 31.55c-1.671-2.657-3.926-5.343-6.21-7.707a68 68 0 0 0-2.41-2.376q.899.19 1.799.188c2.282-.006 4.44-.95 6.821-2.64z"
    clip-rule="evenodd"
  />
</svg>
